dist/img/visa-svg.svg

<svg width="37" height="13" viewBox="0 0 37 13" fill="none" xmlns="http://www.w3.org/2000/svg">
<path d="M15.1236 0.460938L13.2667 12.0166H16.2348L18.0906 0.460938H15.1236ZM24.0765 5.16805C23.0393 4.65585 22.4034 4.31015 22.4034 3.78628C22.4161 3.30996 22.9411 2.82198 24.1135 2.82198C25.0778 2.79775 25.7866 3.02437 26.3243 3.24985L26.5936 3.37007L26.9972 0.952345C26.4109 0.725727 25.4813 0.476028 24.3332 0.476028C21.4021 0.476028 19.3382 1.99996 19.3254 4.17953C19.3011 5.78792 20.803 6.68044 21.927 7.21586C23.0752 7.76509 23.466 8.12119 23.466 8.60917C23.4533 9.35839 22.5376 9.70409 21.6831 9.70409C20.4992 9.70409 19.8632 9.52604 18.8978 9.10857L18.5069 8.93052L18.0918 11.4431C18.7891 11.753 20.0713 12.0258 21.4022 12.0398C24.5172 12.0398 26.5441 10.5389 26.5695 8.21604C26.5797 6.94181 25.7877 5.96584 24.0765 5.16805ZM34.6064 0.496699H32.3101C31.6024 0.496699 31.0647 0.700237 30.7584 1.42638L26.3495 12.0166H29.4645L30.3224 9.72375H33.8074L34.2525 12.0258H36.9998L34.6064 0.496699ZM31.1862 7.40988C31.2463 7.41572 32.3818 3.66707 32.3818 3.66707L33.286 7.40988C33.286 7.40988 31.7725 7.40988 31.1862 7.40988ZM10.7865 0.460938L7.87856 8.31192L7.56177 6.76363C7.02408 4.97719 5.33833 3.03591 3.45703 2.07161L6.11989 12.005H9.26033L13.927 0.462205H10.7865V0.460938Z" fill="#2394BC"/>
<path d="M6.58372 1.95191C6.3571 1.0708 5.63438 0.476549 4.65284 0.463867H0.0474287L0 0.677677C3.59254 1.56335 6.60794 4.2886 7.58619 6.85204L6.58372 1.95191Z" fill="#EFC75E"/>
</svg>

<svg width="37" height="13" fill="none" xmlns="http://www.w3.org/2000/svg"><path d="M15.124.46l-1.857 11.557h2.968L18.09.46h-2.967zm8.952 4.708c-1.037-.512-1.673-.858-1.673-1.382.013-.476.538-.964 1.71-.964a5.165 5.165 0 012.211.428l.27.12.403-2.418a7.492 7.492 0 00-2.664-.476c-2.93 0-4.995 1.524-5.008 3.704-.024 1.608 1.478 2.5 2.602 3.036 1.148.55 1.539.905 1.539 1.393-.013.75-.928 1.095-1.783 1.095-1.184 0-1.82-.178-2.785-.595l-.391-.178-.415 2.512c.697.31 1.98.583 3.31.597 3.115 0 5.142-1.501 5.168-3.824.01-1.274-.782-2.25-2.494-3.048zM34.606.497H32.31c-.708 0-1.245.203-1.552.93l-4.409 10.59h3.116l.857-2.293h3.485l.445 2.302H37L34.606.496zm-3.42 6.913c.06.006 1.196-3.743 1.196-3.743l.904 3.743h-2.1zM10.786.46L7.88 8.313l-.317-1.548c-.538-1.787-2.224-3.728-4.105-4.692l2.663 9.933h3.14L13.927.462h-3.14V.461z" fill="#2394BC"/><path d="M6.584 1.952C6.357 1.07 5.634.477 4.653.464H.047L0 .678c3.593.885 6.608 3.61 7.586 6.174l-1.002-4.9z" fill="#EFC75E"/></svg>
